src/pos-icons/headphones-box.svg

<svg height="24" viewBox="0 0 24 24" width="24" xmlns="http://www.w3.org/2000/svg"><path d="m7.2 18c-.66 0-1.2-.54-1.2-1.2v-3.6-1.2a6 6 0 0 1 6-6 6 6 0 0 1 6 6v1.2 3.6a1.2 1.2 0 0 1 -1.2 1.2h-2.8v-4h2v-2a4 4 0 0 0 -4-4 4 4 0 0 0 -4 4v2h2v4m9-15h-14c-1.11 0-2 .89-2 2v14a2 2 0 0 0 2 2h14a2 2 0 0 0 2-2v-14c0-1.11-.9-2-2-2z"/></svg>

<?xml version="1.0" encoding="UTF-8"?><!DOCTYPE svg PUBLIC "-//W3C//DTD SVG 1.1//EN" "http://www.w3.org/Graphics/SVG/1.1/DTD/svg11.dtd"><svg xmlns="http://www.w3.org/2000/svg" xmlns:xlink="http://www.w3.org/1999/xlink" version="1.1" id="mdi-headphones-box" width="24" height="24" viewBox="0 0 24 24"><path d="M7.2,18C6.54,18 6,17.46 6,16.8V13.2L6,12A6,6 0 0,1 12,6A6,6 0 0,1 18,12V13.2L18,16.8A1.2,1.2 0 0,1 16.8,18H14V14H16V12A4,4 0 0,0 12,8A4,4 0 0,0 8,12V14H10V18M19,3H5C3.89,3 3,3.89 3,5V19A2,2 0 0,0 5,21H19A2,2 0 0,0 21,19V5C21,3.89 20.1,3 19,3Z" /></svg>
